X:2778
T:I Wish I May Die If I Do. HSJJ.167
O:england
M:6/8
L:1/8
Q:115
S:HSJ Jackson,Wyresdale,Lancs.1823
R:Quadrille
A:Lancashire
H:1823
K:D
A|F2Ad2f|eded2A|F2Ad2f|d3-dzA|F2Ad2e|fed agf|
edcB2e|A3-Az:||:f|gagg2e|fgff2d|efg Bcd|d3c2B|
afa geg|fdfe2A|dcd ede|fefg2e|fga efg|
fga efg|fgf ede|f3-f2||A|FGA EFG|FGAE2g|fgf e>de|
d2AF2A|FGA EFG|FGAE2g|fgf|ede|d3-d2|]


